src/pos-icons/toy-brick-marker.svg

<svg height="24" viewBox="0 0 24 24" width="24" xmlns="http://www.w3.org/2000/svg"><path d="m19 6v-1a2 2 0 0 0 -2-2h-2a2 2 0 0 0 -2 2v1h-2v-1a2 2 0 0 0 -2-2h-2a2 2 0 0 0 -2 2v1h-2v14h11.54a9.55 9.55 0 0 1 -1.54-4.5 5.58 5.58 0 0 1 5.5-5.5 5.3 5.3 0 0 1 2.5.63v-4.63m-2.5 6a3.54 3.54 0 0 0 -3.5 3.5c0 2.6 3.5 6.5 3.5 6.5s3.5-3.9 3.5-6.5a3.54 3.54 0 0 0 -3.5-3.5m0 4.8a1.2 1.2 0 1 1 0-2.4 1.29 1.29 0 0 1 1.2 1.2 1.15 1.15 0 0 1 -1.2 1.2z"/></svg>

<?xml version="1.0" encoding="UTF-8"?><!DOCTYPE svg PUBLIC "-//W3C//DTD SVG 1.1//EN" "http://www.w3.org/Graphics/SVG/1.1/DTD/svg11.dtd"><svg xmlns="http://www.w3.org/2000/svg" xmlns:xlink="http://www.w3.org/1999/xlink" version="1.1" id="mdi-toy-brick-marker" width="24" height="24" viewBox="0 0 24 24"><path d="M19 6V5A2 2 0 0 0 17 3H15A2 2 0 0 0 13 5V6H11V5A2 2 0 0 0 9 3H7A2 2 0 0 0 5 5V6H3V20H14.54A9.55 9.55 0 0 1 13 15.5A5.58 5.58 0 0 1 18.5 10A5.3 5.3 0 0 1 21 10.63V6M18.5 12A3.54 3.54 0 0 0 15 15.5C15 18.1 18.5 22 18.5 22S22 18.1 22 15.5A3.54 3.54 0 0 0 18.5 12M18.5 16.8A1.2 1.2 0 1 1 18.5 14.4A1.29 1.29 0 0 1 19.7 15.6A1.15 1.15 0 0 1 18.5 16.8Z" /></svg>
